svgs/schoolplanner.svg

<?xml version="1.0" encoding="UTF-8" standalone="no"?>
<svg
   id="svg5"
   viewBox="0 0 24 24"
   version="1.1"
   sodipodi:docname="schoolplanner.svg"
   inkscape:version="1.1.1 (3bf5ae0d25, 2021-09-20)"
   xmlns:inkscape="http://www.inkscape.org/namespaces/inkscape"
   xmlns:sodipodi="http://sodipodi.sourceforge.net/DTD/sodipodi-0.dtd"
   xmlns="http://www.w3.org/2000/svg"
   xmlns:svg="http://www.w3.org/2000/svg">
  <defs
     id="defs837" />
  <sodipodi:namedview
     id="namedview835"
     pagecolor="#ffffff"
     bordercolor="#666666"
     borderopacity="1.0"
     inkscape:pageshadow="2"
     inkscape:pageopacity="0.0"
     inkscape:pagecheckerboard="0"
     showgrid="true"
     inkscape:zoom="15.520834"
     inkscape:cx="10.534228"
     inkscape:cy="16.3651"
     inkscape:window-width="2560"
     inkscape:window-height="1011"
     inkscape:window-x="0"
     inkscape:window-y="32"
     inkscape:window-maximized="1"
     inkscape:current-layer="svg5">
    <inkscape:grid
       type="xygrid"
       id="grid823"
       empspacing="1" />
  </sodipodi:namedview>
  <g
     style="fill:none"
     id="g934"
     transform="matrix(0.13888889,0,0,0.13888889,4.7777777,1.9999999)">
    <path
       fill-rule="evenodd"
       clip-rule="evenodd"
       d="M 0,10 C 0,4.47705 4.47705,0 10,0 h 7 V 144 H 10 C 4.47705,144 0,139.523 0,134 Z M 24,144 V 0 h 38 v 30 l 13,-9 13,9 V 0 h 6 c 5.5229,0 10,4.47705 10,10 v 124 c 0,5.523 -4.4771,10 -10,10 z M 40,77 H 88 V 87 H 40 Z M 76,97 H 40 v 10 h 36 z"
       fill="#000000"
       id="path925" />
  </g>
</svg>

<svg viewBox="0 0 24 24" xmlns="http://www.w3.org/2000/svg"><path clip-rule="evenodd" d="M0 10C0 4.477 4.477 0 10 0h7v144h-7c-5.523 0-10-4.477-10-10Zm24 134V0h38v30l13-9 13 9V0h6c5.523 0 10 4.477 10 10v124c0 5.523-4.477 10-10 10zm16-67h48v10H40Zm36 20H40v10h36z" transform="translate(4.778 2) scale(.13889)" style="fill:none"/></svg>
